Suru++-Ubuntu/apps/scalable/aptana.svg

<svg width="256" height="256" style="clip-rule:evenodd;fill-rule:evenodd;image-rendering:optimizeQuality;shape-rendering:geometricPrecision;text-rendering:geometricPrecision" version="1.1" viewBox="0 0 256 256" xmlns="http://www.w3.org/2000/svg" xmlns:xlink="http://www.w3.org/1999/xlink">
 <defs>
  <style type="text/css"><![CDATA[
    .fil5 {fill:none}
    .fil1 {fill:#196FBA}
    .fil0 {fill:#25B2EE}
    .fil4 {fill:#793C7C}
    .fil3 {fill:#8C508C}
    .fil2 {fill:white}
   ]]></style>
  <filter id="filter939" x="-.02" y="-.03" width="1.046" height="1.05" style="color-interpolation-filters:sRGB">
   <feGaussianBlur stdDeviation="2.32"/>
  </filter>
  <filter id="filter4569" x="-.01" y="-.01" width="1.023" height="1.025" style="color-interpolation-filters:sRGB">
   <feGaussianBlur stdDeviation="1.16"/>
  </filter>
  <linearGradient id="linearGradient1108" x1="296" x2="296" y1="-212" y2="236" gradientUnits="userSpaceOnUse">
   <stop style="stop-color:#ffffff" offset="0"/>
   <stop style="stop-color:#ffffff;stop-opacity:.09803922" offset=".125"/>
   <stop style="stop-color:#000000;stop-opacity:.09803922" offset=".925"/>
   <stop style="stop-color:#000000;stop-opacity:.49803922" offset="1"/>
  </linearGradient>
  <clipPath id="clipPath1082-3-361">
   <path d="M 361.9375,-212 C 507.2348,-212 528,-191.28677 528,-46.125 V 70.125 C 528,215.28618 507.2348,236 361.9375,236 H 214.0625 C 68.7652,236 48,215.28618 48,70.125 V -46.125 C 48,-191.28677 68.7652,-212 214.0625,-212 Z" style="fill:#8c59d9"/>
  </clipPath>
  <filter id="filter877" x="-.05" y="-.05" width="1.096" height="1.096" style="color-interpolation-filters:sRGB">
   <feGaussianBlur stdDeviation="3.174"/>
  </filter>
 </defs>
 <path transform="matrix(1.019368,0,0,1.019368,-7.2181772e-8,8.3098661)" d="m162.53675 5.5680001c72.64865 0 83.03125 10.356615 83.03125 82.937505v58.125005c0 72.58059-10.3826 82.9375-83.03125 82.9375h-73.937496c-72.648654 0-83.031254-10.35691-83.031254-82.9375v-58.125005c0-72.58089 10.3826-82.937505 83.031254-82.937505z" style="filter:url(#filter939);opacity:.2"/>
 <path d="m165.68477 11.946967c74.05571 0 84.6394 10.557203 84.6394 84.543835v59.250778c0 73.98633-10.58369 84.54383-84.6394 84.54383h-75.369521c-74.055717 0-84.639408-10.5575-84.639408-84.54383v-59.250778c0-73.986632 10.583691-84.543835 84.639408-84.543835z" style="fill:none;opacity:.1;stroke-linecap:round;stroke-linejoin:round;stroke-width:4.0774717;stroke:#000000"/>
 <path transform="matrix(1.019368,0,0,1.019368,-7.2181772e-8,8.3098661)" d="m162.53675 3.5680001c72.64865 0 83.03125 10.356615 83.03125 82.937505v58.125005c0 72.58059-10.3826 82.9375-83.03125 82.9375h-73.937496c-72.648654 0-83.031254-10.35691-83.031254-82.9375v-58.125005c0-72.58089 10.3826-82.937505 83.031254-82.937505z" style="filter:url(#filter4569);opacity:.1"/>
 <path d="m165.68476 11.946967c74.05571 0 84.6394 10.557203 84.6394 84.543835v59.250778c0 73.98633-10.58369 84.54383-84.6394 84.54383h-75.369524c-74.055712 0-84.639404-10.5575-84.639404-84.54383v-59.250778c0-73.986632 10.583692-84.543835 84.639404-84.543835z" style="fill:#ff7f2a"/>
 <path transform="matrix(.50968403 0 0 .50968403 -18.788999 120)" d="M 361.9375,-212 C 507.2348,-212 528,-191.28677 528,-46.125 V 70.125 C 528,215.28618 507.2348,236 361.9375,236 H 214.0625 C 68.7652,236 48,215.28618 48,70.125 V -46.125 C 48,-191.28677 68.7652,-212 214.0625,-212 Z" clip-path="url(#clipPath1082-3-361)" style="fill:none;opacity:.4;stroke-linecap:round;stroke-linejoin:round;stroke-width:8;stroke:url(#linearGradient1108)"/>
 <g transform="matrix(1.0081428,0,0,1.0081428,-2.3671382,-5.6976889)" style="fill:#090101;filter:url(#filter877);opacity:.3">
  <path d="m117.9779 47.427668c-2.04013 0-3.74026 7.879778-4.73822 19.141036a62.349451 62.349451 0 0 0-15.067028 6.332337c-8.70371-7.294567-15.50255-11.697804-16.94906-10.251345l-16.041267 16.041326c-1.446501 1.446459 2.956785 8.245318 10.251363 16.949034a62.349451 62.349451 0 0 0-6.277001 15.067004c-11.292818 0.99722-19.196372 2.69467-19.196372 4.73819v22.67259c0 2.04009 7.879742 3.74018 19.141023 4.73818a62.349451 62.349451 0 0 0 6.310211 15.10023c-7.27799 8.68814-11.673972 15.47108-10.229224 16.91588l16.041267 16.04114c1.44342 1.44347 8.21783-2.942 16.8937-10.20701a62.349451 62.349451 0 0 0 15.122388 6.23274c0.99701 11.29283 2.69465 19.19637 4.73822 19.19637h22.67252c2.04013 0 3.74026-7.87973 4.73821-19.14098a62.349451 62.349451 0 0 0 15.06705-6.33239c8.70369 7.29462 15.50253 11.69785 16.94903 10.25127l16.04127-16.04114c1.44652-1.44658-2.95678-8.24544-10.25135-16.9491a62.349451 62.349451 0 0 0 6.277-15.06701c11.29281-0.99727 19.19637-2.69467 19.19637-4.73818v-22.67259c0-2.0401-7.87975-3.74024-19.14103-4.73819a62.349451 62.349451 0 0 0-6.31021-15.100217c7.27799-8.688149 11.67398-15.471072 10.22922-16.915821l-16.04127-16.041326c-1.44342-1.443345-8.21782 2.942125-16.89369 10.20714a62.349451 62.349451 0 0 0-15.12239-6.232756c-0.99701-11.292883-2.69465-19.196412-4.73821-19.196412zm11.33626 51.013174a28.340658 28.340658 0 0 1 28.34065 28.340638 28.340658 28.340658 0 0 1-28.34065 28.34072 28.340658 28.340658 0 0 1-28.34065-28.34072 28.340658 28.340658 0 0 1 28.34065-28.340638z" style="fill:#090101"/>
 </g>
 <g transform="matrix(1.0081428,0,0,1.0081428,-2.3671382,-5.6976889)">
  <path d="m117.9779 47.427668c-2.04013 0-3.74026 7.879778-4.73822 19.141036a62.349451 62.349451 0 0 0-15.067028 6.332337c-8.70371-7.294567-15.50255-11.697804-16.94906-10.251345l-16.041267 16.041326c-1.446501 1.446459 2.956785 8.245318 10.251363 16.949034a62.349451 62.349451 0 0 0-6.277001 15.067004c-11.292818 0.99722-19.196372 2.69467-19.196372 4.73819v22.67259c0 2.04009 7.879742 3.74018 19.141023 4.73818a62.349451 62.349451 0 0 0 6.310211 15.10023c-7.27799 8.68814-11.673972 15.47108-10.229224 16.91588l16.041267 16.04114c1.44342 1.44347 8.21783-2.942 16.8937-10.20701a62.349451 62.349451 0 0 0 15.122388 6.23274c0.99701 11.29283 2.69465 19.19637 4.73822 19.19637h22.67252c2.04013 0 3.74026-7.87973 4.73821-19.14098a62.349451 62.349451 0 0 0 15.06705-6.33239c8.70369 7.29462 15.50253 11.69785 16.94903 10.25127l16.04127-16.04114c1.44652-1.44658-2.95678-8.24544-10.25135-16.9491a62.349451 62.349451 0 0 0 6.277-15.06701c11.29281-0.99727 19.19637-2.69467 19.19637-4.73818v-22.67259c0-2.0401-7.87975-3.74024-19.14103-4.73819a62.349451 62.349451 0 0 0-6.31021-15.100217c7.27799-8.688149 11.67398-15.471072 10.22922-16.915821l-16.04127-16.041326c-1.44342-1.443345-8.21782 2.942125-16.89369 10.20714a62.349451 62.349451 0 0 0-15.12239-6.232756c-0.99701-11.292883-2.69465-19.196412-4.73821-19.196412zm11.33626 51.013174a28.340658 28.340658 0 0 1 28.34065 28.340638 28.340658 28.340658 0 0 1-28.34065 28.34072 28.340658 28.340658 0 0 1-28.34065-28.34072 28.340658 28.340658 0 0 1 28.34065-28.340638z" style="fill:#ffefd3"/>
 </g>
 <path d="m90.315238 240.28541c-74.055712 0-84.639403-10.95275-84.639403-87.71148v-30.73535h244.64832v30.73535c0 76.75873-10.58369 87.71148-84.6394 87.71148z" style="fill:#ffffff;opacity:.1"/>
 <path d="m127.01285 11.946967v228.33844h37.98888c74.65333 0 85.32243-10.5575 85.32243-84.54383v-59.250778c0-73.986632-10.6691-84.543835-85.32243-84.543835z" style="fill:#ffffff;opacity:.1"/>
</svg>

<svg xmlns="http://www.w3.org/2000/svg" xmlns:xlink="http://www.w3.org/1999/xlink" style="clip-rule:evenodd;fill-rule:evenodd;image-rendering:optimizeQuality;shape-rendering:geometricPrecision;text-rendering:geometricPrecision" width="256" height="256" version="1.1" viewBox="0 0 256 256" xml:space="preserve">
 <defs>
  <style id="style2" type="text/css">
   <![CDATA[
    .fil5 {fill:none}
    .fil1 {fill:#196FBA}
    .fil0 {fill:#25B2EE}
    .fil4 {fill:#793C7C}
    .fil3 {fill:#8C508C}
    .fil2 {fill:white}
   ]]>
  </style>
  <filter style="color-interpolation-filters:sRGB" id="filter939" width="1.046" height="1.05" x="-.02" y="-.03">
   <feGaussianBlur id="feGaussianBlur941" stdDeviation="2.32"/>
  </filter>
  <filter style="color-interpolation-filters:sRGB" id="filter4569" width="1.023" height="1.025" x="-.01" y="-.01">
   <feGaussianBlur id="feGaussianBlur4571" stdDeviation="1.16"/>
  </filter>
  <linearGradient id="linearGradient1108" x1="296" x2="296" y1="-212" y2="236" gradientUnits="userSpaceOnUse" xlink:href="#linearGradient1013"/>
  <linearGradient id="linearGradient1013">
   <stop id="stop1005" offset="0" style="stop-color:#ffffff"/>
   <stop style="stop-color:#ffffff;stop-opacity:0.09803922" id="stop1007" offset=".125"/>
   <stop style="stop-color:#000000;stop-opacity:0.09803922" id="stop1009" offset=".925"/>
   <stop id="stop1011" offset="1" style="stop-color:#000000;stop-opacity:0.49803922"/>
  </linearGradient>
  <clipPath id="clipPath1082-3-361" clipPathUnits="userSpaceOnUse">
   <path d="M 361.9375,-212 C 507.2348,-212 528,-191.28677 528,-46.125 V 70.125 C 528,215.28618 507.2348,236 361.9375,236 H 214.0625 C 68.7652,236 48,215.28618 48,70.125 V -46.125 C 48,-191.28677 68.7652,-212 214.0625,-212 Z" style="fill:#8c59d9"/>
  </clipPath>
  <linearGradient id="linearGradient4958">
   <stop style="stop-color:#8d91db" id="stop4960" offset="0"/>
   <stop style="stop-color:#1f225f" id="stop4962" offset="1"/>
  </linearGradient>
  <radialGradient id="radialGradient3033" cx="182.984" cy="395.049" r="148.953" fx="182.984" fy="395.049" gradientTransform="matrix(1.165761,-1.2668566,3.8886482,4.2258738,-1653.0964,-1252.7344)" gradientUnits="userSpaceOnUse" xlink:href="#linearGradient3755"/>
  <linearGradient id="linearGradient3755">
   <stop style="stop-color:#008cbe" id="stop3757" offset="0"/>
   <stop style="stop-color:#b2ffff" id="stop3759" offset="1"/>
  </linearGradient>
  <filter style="color-interpolation-filters:sRGB" id="filter877" width="1.096" height="1.096" x="-.05" y="-.05">
   <feGaussianBlur id="feGaussianBlur879" stdDeviation="3.174"/>
  </filter>
 </defs>
 <path style="opacity:0.2;filter:url(#filter939)" d="m 162.53675,5.5680001 c 72.64865,0 83.03125,10.3566149 83.03125,82.9375049 v 58.125005 c 0,72.58059 -10.3826,82.9375 -83.03125,82.9375 H 88.599254 C 15.9506,229.56801 5.568,219.2111 5.568,146.63051 V 88.505505 c 0,-72.58089 10.3826,-82.9375049 83.031254,-82.9375049 z" transform="matrix(1.019368,0,0,1.019368,-7.2181772e-8,8.3098661)"/>
 <path d="m 165.68477,11.946967 c 74.05571,0 84.6394,10.557203 84.6394,84.543835 v 59.250778 c 0,73.98633 -10.58369,84.54383 -84.6394,84.54383 H 90.315249 c -74.055717,0 -84.639408,-10.5575 -84.639408,-84.54383 V 96.490802 c 0,-73.986632 10.583691,-84.543835 84.639408,-84.543835 z" style="opacity:0.1;fill:none;stroke:#000000;stroke-width:4.07747173;stroke-linecap:round;stroke-linejoin:round"/>
 <path d="m 162.53675,3.5680001 c 72.64865,0 83.03125,10.3566149 83.03125,82.9375049 v 58.125005 c 0,72.58059 -10.3826,82.9375 -83.03125,82.9375 H 88.599254 C 15.9506,227.56801 5.568,217.2111 5.568,144.63051 V 86.505505 c 0,-72.58089 10.3826,-82.9375049 83.031254,-82.9375049 z" transform="matrix(1.019368,0,0,1.019368,-7.2181772e-8,8.3098661)" style="opacity:0.1;filter:url(#filter4569)"/>
 <path style="fill:#ff7f2a" d="m 165.68476,11.946967 c 74.05571,0 84.6394,10.557203 84.6394,84.543835 v 59.250778 c 0,73.98633 -10.58369,84.54383 -84.6394,84.54383 H 90.315236 c -74.055712,0 -84.6394035,-10.5575 -84.6394035,-84.54383 V 96.490802 c 0,-73.986632 10.5836915,-84.543835 84.6394035,-84.543835 z"/>
 <path d="M 361.9375,-212 C 507.2348,-212 528,-191.28677 528,-46.125 V 70.125 C 528,215.28618 507.2348,236 361.9375,236 H 214.0625 C 68.7652,236 48,215.28618 48,70.125 V -46.125 C 48,-191.28677 68.7652,-212 214.0625,-212 Z" clip-path="url(#clipPath1082-3-361)" transform="matrix(0.50968403,0,0,0.50968403,-18.788999,120)" style="opacity:0.4;fill:none;stroke:url(#linearGradient1108);stroke-width:8;stroke-linecap:round;stroke-linejoin:round"/>
 <g transform="matrix(1.0081428,0,0,1.0081428,-2.3671382,-5.6976889)" style="fill:#090101;filter:url(#filter877);opacity:0.3">
  <path style="fill:#090101" d="m 117.9779,47.427668 c -2.04013,0 -3.74026,7.879778 -4.73822,19.141036 A 62.349451,62.349451 0 0 0 98.172652,72.901041 C 89.468942,65.606474 82.670102,61.203237 81.223592,62.649696 L 65.182325,78.691022 c -1.446501,1.446459 2.956785,8.245318 10.251363,16.949034 a 62.349451,62.349451 0 0 0 -6.277001,15.067004 c -11.292818,0.99722 -19.196372,2.69467 -19.196372,4.73819 v 22.67259 c 0,2.04009 7.879742,3.74018 19.141023,4.73818 a 62.349451,62.349451 0 0 0 6.310211,15.10023 c -7.27799,8.68814 -11.673972,15.47108 -10.229224,16.91588 l 16.041267,16.04114 c 1.44342,1.44347 8.21783,-2.942 16.8937,-10.20701 a 62.349451,62.349451 0 0 0 15.122388,6.23274 c 0.99701,11.29283 2.69465,19.19637 4.73822,19.19637 h 22.67252 c 2.04013,0 3.74026,-7.87973 4.73821,-19.14098 a 62.349451,62.349451 0 0 0 15.06705,-6.33239 c 8.70369,7.29462 15.50253,11.69785 16.94903,10.25127 l 16.04127,-16.04114 c 1.44652,-1.44658 -2.95678,-8.24544 -10.25135,-16.9491 a 62.349451,62.349451 0 0 0 6.277,-15.06701 c 11.29281,-0.99727 19.19637,-2.69467 19.19637,-4.73818 v -22.67259 c 0,-2.0401 -7.87975,-3.74024 -19.14103,-4.73819 a 62.349451,62.349451 0 0 0 -6.31021,-15.100217 c 7.27799,-8.688149 11.67398,-15.471072 10.22922,-16.915821 L 177.40471,62.649696 c -1.44342,-1.443345 -8.21782,2.942125 -16.89369,10.20714 A 62.349451,62.349451 0 0 0 145.38863,66.62408 c -0.99701,-11.292883 -2.69465,-19.196412 -4.73821,-19.196412 z m 11.33626,51.013174 a 28.340658,28.340658 0 0 1 28.34065,28.340638 28.340658,28.340658 0 0 1 -28.34065,28.34072 28.340658,28.340658 0 0 1 -28.34065,-28.34072 28.340658,28.340658 0 0 1 28.34065,-28.340638 z"/>
 </g>
 <g transform="matrix(1.0081428,0,0,1.0081428,-2.3671382,-5.6976889)">
  <path d="m 117.9779,47.427668 c -2.04013,0 -3.74026,7.879778 -4.73822,19.141036 A 62.349451,62.349451 0 0 0 98.172652,72.901041 C 89.468942,65.606474 82.670102,61.203237 81.223592,62.649696 L 65.182325,78.691022 c -1.446501,1.446459 2.956785,8.245318 10.251363,16.949034 a 62.349451,62.349451 0 0 0 -6.277001,15.067004 c -11.292818,0.99722 -19.196372,2.69467 -19.196372,4.73819 v 22.67259 c 0,2.04009 7.879742,3.74018 19.141023,4.73818 a 62.349451,62.349451 0 0 0 6.310211,15.10023 c -7.27799,8.68814 -11.673972,15.47108 -10.229224,16.91588 l 16.041267,16.04114 c 1.44342,1.44347 8.21783,-2.942 16.8937,-10.20701 a 62.349451,62.349451 0 0 0 15.122388,6.23274 c 0.99701,11.29283 2.69465,19.19637 4.73822,19.19637 h 22.67252 c 2.04013,0 3.74026,-7.87973 4.73821,-19.14098 a 62.349451,62.349451 0 0 0 15.06705,-6.33239 c 8.70369,7.29462 15.50253,11.69785 16.94903,10.25127 l 16.04127,-16.04114 c 1.44652,-1.44658 -2.95678,-8.24544 -10.25135,-16.9491 a 62.349451,62.349451 0 0 0 6.277,-15.06701 c 11.29281,-0.99727 19.19637,-2.69467 19.19637,-4.73818 v -22.67259 c 0,-2.0401 -7.87975,-3.74024 -19.14103,-4.73819 a 62.349451,62.349451 0 0 0 -6.31021,-15.100217 c 7.27799,-8.688149 11.67398,-15.471072 10.22922,-16.915821 L 177.40471,62.649696 c -1.44342,-1.443345 -8.21782,2.942125 -16.89369,10.20714 A 62.349451,62.349451 0 0 0 145.38863,66.62408 c -0.99701,-11.292883 -2.69465,-19.196412 -4.73821,-19.196412 z m 11.33626,51.013174 a 28.340658,28.340658 0 0 1 28.34065,28.340638 28.340658,28.340658 0 0 1 -28.34065,28.34072 28.340658,28.340658 0 0 1 -28.34065,-28.34072 28.340658,28.340658 0 0 1 28.34065,-28.340638 z" style="fill:#ffefd3"/>
 </g>
 <path style="opacity:0.1;fill:#ffffff" d="m 90.315238,240.28541 c -74.055712,0 -84.639403,-10.95275 -84.639403,-87.71148 V 121.83858 H 250.32416 v 30.73535 c 0,76.75873 -10.58369,87.71148 -84.6394,87.71148 z"/>
 <path style="opacity:0.1;fill:#ffffff" d="M 127.01285,11.946967 V 240.28541 h 37.98888 c 74.65333,0 85.32243,-10.5575 85.32243,-84.54383 V 96.490802 c 0,-73.986632 -10.6691,-84.543835 -85.32243,-84.543835 z"/>
</svg>
